X: 24184
T: Lord Gordon's
R: reel
M: 4/4
K: Dmajor
dB|:AD (3FED A,DFB|AD (3FED FAdc|BE~E2 dE~E2|BE~E2 BAFA|
dcdf edef|(3ABA ^GB A2Bc|(3dcB (3cBA BFAF|1 EFGA BcdB:|2 EFGA Bcde||
|:f2 df afde|(3faf df a2 gf|efga bgec|dcBA GABc|
d~f3 e~B3|AFdF A2 Bc|dB (3cBA BFAF|EFGA Bcde:|
|:fa (3aaa fdad|fa (3aaa fdad|fb(3bbb febe|fb(3bbb febe|
~f3e ~d3B|(3ABA ^GB A2e(f|a)fec dBAF|EFGA Bcde:|
Adcd fdcd|Adcd fdcd|egfg bgfg|egfg bgeg|
fgfe dedB|(3ABA ^GB A2e(f|a)fec dBAF|EFGA BcdB|
Ad{e}dc defd|Ad{e}dc defd|eg{a}gf ~g3f|(3efg {a}gf ~g3f|
fgfe dedB|(3ABA ^GB A2e(f|a)fec dBAF|EFGA Bcde|
|:fa{b}a^g afde|fa{b}a^g afdf|gbef gbef|gbef gfef|
gb(3bbb fa (3aaa|fedB ABdf|afec dBAF|1 EFGA BcdB:|2 EFGA B2|
"Final Ending"[G2B2] [F2A2]||

